X: 6983
T: Chicago, The
R: jig
M: 6/8
K: Dmixolydian
|:DFA GFD|DED CDE|=FEF G^FG|A/B/cA dcA|
DFA GFD|DED CDE|=FAc GEC|EDC D3:|
|:DFA ~d3|~B3 AFE|DFA dBA|B/^c/dB ABc|
dBd =cAc|~B3 AFE|DFA GEC|EDC D3:|

